images/zhuyin/btn_sound_m.svg

<svg width="100" height="100" viewBox="0 0 100 100" fill="none" xmlns="http://www.w3.org/2000/svg">
<path d="M56.5 34.3712C57.2876 36.9822 57.5503 41.5374 57.5 43.5L62 51.5L57.5 53.5V59.5V65.5L55.5 66.5L48.5 65.5V78.5H22.5C25.2035 73.8654 25.8614 65.6509 25.527 61M56.5 34.3712C54.679 28.3348 50.0521 22 40 22C22 22 19 35.5 19 40C19 44.5 23.5 54.5 25 58C25.2438 58.5689 25.4285 59.6298 25.527 61M56.5 34.3712C56.5 34.3712 41.4073 31.9284 38 38.5C36.5 41.393 39 47.5 39 50C39 52.2361 36.9469 59.495 34 61C31.0531 62.505 25.527 61 25.527 61M61 58V62.5M65 55.5V64M69 49V72M73 53.5V66.5M77 51.5V68M81 58V62.5" stroke="#333333" stroke-width="2" stroke-linecap="round" stroke-linejoin="round"/>
</svg>

<svg xmlns="http://www.w3.org/2000/svg" width="100" height="100" fill="none"><path stroke="#333" stroke-linecap="round" stroke-linejoin="round" stroke-width="2" d="M56.5 34.371c.788 2.611 1.05 7.166 1 9.129l4.5 8-4.5 2v12l-2 1-7-1v13h-26c2.703-4.635 3.361-12.85 3.027-17.5M56.5 34.371C54.679 28.335 50.052 22 40 22c-18 0-21 13.5-21 18s4.5 14.5 6 18c.244.569.428 1.63.527 3M56.5 34.371S41.407 31.928 38 38.5c-1.5 2.893 1 9 1 11.5 0 2.236-2.053 9.495-5 11-2.947 1.505-8.473 0-8.473 0M61 58v4.5m4-7V64m4-15v23m4-18.5v13m4-15V68m4-10v4.5"/></svg>
